src/assets/icons/recycling.svg

<?xml version="1.0" encoding="UTF-8"?>
<svg width="32px" height="32px" viewBox="0 0 32 32" version="1.1" xmlns="http://www.w3.org/2000/svg" xmlns:xlink="http://www.w3.org/1999/xlink">
    <!-- Generator: Sketch 61.2 (89653) - https://sketch.com -->
    <title>Atoms/Ikoner/Tjenester/Recycling</title>
    <desc>Created with Sketch.</desc>
    <g id="Atoms/Ikoner/Tjenester/Recycling" stroke="none" stroke-width="1" fill="none" fill-rule="evenodd">
        <g id="Waste-and-Recycling">
            <path d="M27.65,12.13 L32,19.377 L26.214,29.964 L19.224,29.964 L15.196,25.948 L19.005,21.615 L23.57,21.489 L20.587,16.407 L27.65,12.13 Z M9.21,12.28 L10.344,17.61 L8.202,21.567 L14.095,21.525 L14.267,29.964 L5.794,29.964 L-8.70414851e-14,19.873 L3.698,13.15 L9.21,12.28 Z M27.564,23.362 L19.922,23.572 L17.912,25.859 L20.043,27.983 L25.04,27.983 L27.564,23.362 Z M12.154,23.52 L7.126,23.556 L5.803,26 L6.942,27.983 L12.245,27.983 L12.154,23.52 Z M7.663,14.53 L4.967,14.956 L2.273,19.852 L4.644,23.98 L8.255,17.307 L7.663,14.53 Z M26.974,14.856 L23.284,17.09 L25.83,21.427 L28.664,21.349 L29.717,19.423 L26.974,14.856 Z M21.672,2.036 L25.533,8.126 L23.396,13.255 L18.504,12.176 L16.12,8.295 L13.21,13.419 L5.974,9.44 L10.081,2.036 L21.672,2.036 Z M20.584,4.016 L15.817,4.016 L19.753,10.421 L22.205,10.962 L23.309,8.314 L20.584,4.016 Z M13.491,4.017 L11.249,4.017 L8.672,8.662 L12.453,10.741 L14.936,6.368 L13.491,4.017 Z" id="Combined-Shape" fill="#2A2859"></path>
        </g>
    </g>
</svg>

<svg xmlns="http://www.w3.org/2000/svg" width="32" height="32" viewBox="0 0 32 32"><defs><style>.cls-1{fill-rule:evenodd;}</style></defs><g id="recycling"><path id="Combined-Shape" class="cls-1" d="M27.65,12.13,32,19.38,26.21,30h-7l-4-4L19,21.61l4.57-.12-3-5.08Zm-18.44.15,1.13,5.33-2.14,4,5.9-.05L14.27,30H5.79L0,19.87l3.7-6.72ZM27.56,23.36l-7.64.21-2,2.29L20,28h5Zm-15.41.16-5,0L5.8,26l1.14,2h5.3Zm-4.49-9L5,15l-2.7,4.89L4.64,24l3.62-6.67ZM27,14.86l-3.69,2.23,2.55,4.34,2.83-.08,1.06-1.93ZM21.67,2l3.86,6.09L23.4,13.25l-4.9-1.07L16.12,8.29l-2.91,5.13L6,9.44,10.08,2ZM20.58,4H15.82l3.93,6.4L22.2,11l1.11-2.65ZM13.49,4H11.25L8.67,8.66l3.78,2.08,2.49-4.37Z"/></g></svg>
